documentation/public/assets/images/checkbox-dos-and-donts-02.svg

<svg width="148" height="18" viewBox="0 0 148 18" fill="none" xmlns="http://www.w3.org/2000/svg">
<rect x="1.09375" y="2.5" width="15" height="15" rx="2.5" fill="white" stroke="#545454"/>
<path d="M25.7559 14.25H24.5938V4.25586H30.1582V5.28125H25.7559V8.94531H29.8916V9.96387H25.7559V14.25Z" fill="black"/>
<path d="M34.54 6.62109C35.1781 6.62109 35.7249 6.76237 36.1807 7.04492C36.6364 7.32747 36.985 7.72396 37.2266 8.23438C37.4681 8.74023 37.5889 9.33268 37.5889 10.0117V10.7158H32.4141C32.4277 11.5954 32.6465 12.2653 33.0703 12.7256C33.4941 13.1859 34.0911 13.416 34.8613 13.416C35.3353 13.416 35.7546 13.3727 36.1191 13.2861C36.4837 13.1995 36.862 13.0719 37.2539 12.9033V13.9014C36.8757 14.07 36.4997 14.193 36.126 14.2705C35.7568 14.348 35.3193 14.3867 34.8135 14.3867C34.0934 14.3867 33.4645 14.2409 32.9268 13.9492C32.3936 13.653 31.9788 13.2201 31.6826 12.6504C31.3864 12.0807 31.2383 11.3835 31.2383 10.5586C31.2383 9.75195 31.3727 9.05469 31.6416 8.4668C31.915 7.87435 32.2979 7.41862 32.79 7.09961C33.2868 6.7806 33.8701 6.62109 34.54 6.62109ZM34.5264 7.55078C33.9202 7.55078 33.4372 7.74902 33.0771 8.14551C32.7171 8.54199 32.5029 9.0957 32.4346 9.80664H36.3994C36.3949 9.36003 36.3242 8.9681 36.1875 8.63086C36.0553 8.28906 35.8525 8.02474 35.5791 7.83789C35.3057 7.64648 34.9548 7.55078 34.5264 7.55078Z" fill="black"/>
<path d="M47.6514 6.62109C48.4762 6.62109 49.0983 6.83757 49.5176 7.27051C49.9368 7.69889 50.1465 8.38932 50.1465 9.3418V14.25H49.0254V9.39648C49.0254 8.79036 48.8932 8.33691 48.6289 8.03613C48.3691 7.73079 47.9818 7.57812 47.4668 7.57812C46.7422 7.57812 46.2158 7.78776 45.8877 8.20703C45.5596 8.6263 45.3955 9.24382 45.3955 10.0596V14.25H44.2676V9.39648C44.2676 8.99089 44.2083 8.65365 44.0898 8.38477C43.9759 8.11589 43.8027 7.91536 43.5703 7.7832C43.3424 7.64648 43.0531 7.57812 42.7021 7.57812C42.2054 7.57812 41.8066 7.68066 41.5059 7.88574C41.2051 8.09082 40.9863 8.39616 40.8496 8.80176C40.7174 9.2028 40.6514 9.69727 40.6514 10.2852V14.25H39.5166V6.75781H40.4326L40.6035 7.81738H40.665C40.8154 7.55762 41.0046 7.33887 41.2324 7.16113C41.4603 6.9834 41.7155 6.84896 41.998 6.75781C42.2806 6.66667 42.5814 6.62109 42.9004 6.62109C43.4701 6.62109 43.9463 6.72819 44.3291 6.94238C44.7165 7.15202 44.9967 7.47331 45.1699 7.90625H45.2314C45.4775 7.47331 45.8148 7.15202 46.2432 6.94238C46.6715 6.72819 47.141 6.62109 47.6514 6.62109Z" fill="black"/>
<path d="M55.2803 6.63477C56.1735 6.63477 56.8366 6.83529 57.2695 7.23633C57.7025 7.63737 57.9189 8.27767 57.9189 9.15723V14.25H57.0918L56.873 13.1426H56.8184C56.6087 13.416 56.39 13.6462 56.1621 13.833C55.9342 14.0153 55.6699 14.1543 55.3691 14.25C55.0729 14.3411 54.7083 14.3867 54.2754 14.3867C53.8197 14.3867 53.4141 14.307 53.0586 14.1475C52.7077 13.988 52.4297 13.7464 52.2246 13.4229C52.0241 13.0993 51.9238 12.6891 51.9238 12.1924C51.9238 11.445 52.2201 10.8708 52.8125 10.4697C53.4049 10.0687 54.3073 9.84993 55.5195 9.81348L56.8115 9.75879V9.30078C56.8115 8.65365 56.6725 8.2002 56.3945 7.94043C56.1165 7.68066 55.7246 7.55078 55.2188 7.55078C54.8268 7.55078 54.4531 7.60775 54.0977 7.72168C53.7422 7.83561 53.4049 7.97005 53.0859 8.125L52.7373 7.26367C53.0745 7.09049 53.4619 6.94238 53.8994 6.81934C54.3369 6.69629 54.7972 6.63477 55.2803 6.63477ZM56.7979 10.5586L55.6562 10.6064C54.722 10.6429 54.0635 10.7956 53.6807 11.0645C53.2979 11.3333 53.1064 11.7139 53.1064 12.2061C53.1064 12.6344 53.2363 12.9512 53.4961 13.1562C53.7559 13.3613 54.0999 13.4639 54.5283 13.4639C55.1937 13.4639 55.7383 13.2793 56.1621 12.9102C56.5859 12.541 56.7979 11.9873 56.7979 11.249V10.5586Z" fill="black"/>
<path d="M61.3984 14.25H60.2568V3.61328H61.3984V14.25Z" fill="black"/>
<path d="M66.6826 6.62109C67.3206 6.62109 67.8675 6.76237 68.3232 7.04492C68.779 7.32747 69.1276 7.72396 69.3691 8.23438C69.6107 8.74023 69.7314 9.33268 69.7314 10.0117V10.7158H64.5566C64.5703 11.5954 64.7891 12.2653 65.2129 12.7256C65.6367 13.1859 66.2337 13.416 67.0039 13.416C67.4779 13.416 67.8971 13.3727 68.2617 13.2861C68.6263 13.1995 69.0046 13.0719 69.3965 12.9033V13.9014C69.0182 14.07 68.6423 14.193 68.2686 14.2705C67.8994 14.348 67.4619 14.3867 66.9561 14.3867C66.236 14.3867 65.6071 14.2409 65.0693 13.9492C64.5361 13.653 64.1214 13.2201 63.8252 12.6504C63.529 12.0807 63.3809 11.3835 63.3809 10.5586C63.3809 9.75195 63.5153 9.05469 63.7842 8.4668C64.0576 7.87435 64.4404 7.41862 64.9326 7.09961C65.4294 6.7806 66.0127 6.62109 66.6826 6.62109ZM66.6689 7.55078C66.0628 7.55078 65.5798 7.74902 65.2197 8.14551C64.8597 8.54199 64.6455 9.0957 64.5771 9.80664H68.542C68.5374 9.36003 68.4668 8.9681 68.3301 8.63086C68.1979 8.28906 67.9951 8.02474 67.7217 7.83789C67.4482 7.64648 67.0973 7.55078 66.6689 7.55078Z" fill="black"/>
<rect x="93.7314" y="2" width="16" height="16" rx="3" fill="#1E71F6"/>
<path d="M105.211 5.34229C105.472 4.98299 105.991 4.89197 106.37 5.13899C106.749 5.386 106.845 5.87751 106.585 6.2368L100.474 14.6578C100.14 15.118 99.4207 15.1132 99.0937 14.6485L96.8715 11.4906C96.6162 11.1278 96.7197 10.6376 97.1026 10.3958C97.4855 10.1539 98.0029 10.252 98.2582 10.6147L99.7977 12.8024L105.211 5.34229Z" fill="white"/>
<path d="M122.127 14.25L118.771 5.4043H118.716C118.734 5.59115 118.75 5.81901 118.764 6.08789C118.777 6.35677 118.789 6.65072 118.798 6.96973C118.807 7.28418 118.812 7.60547 118.812 7.93359V14.25H117.731V4.25586H119.454L122.619 12.5684H122.667L125.88 4.25586H127.589V14.25H126.44V7.85156C126.44 7.55534 126.445 7.25911 126.454 6.96289C126.463 6.66211 126.475 6.37956 126.488 6.11523C126.502 5.84635 126.516 5.61393 126.529 5.41797H126.475L123.077 14.25H122.127Z" fill="black"/>
<path d="M132.955 6.63477C133.848 6.63477 134.511 6.83529 134.944 7.23633C135.377 7.63737 135.594 8.27767 135.594 9.15723V14.25H134.767L134.548 13.1426H134.493C134.284 13.416 134.065 13.6462 133.837 13.833C133.609 14.0153 133.345 14.1543 133.044 14.25C132.748 14.3411 132.383 14.3867 131.95 14.3867C131.494 14.3867 131.089 14.307 130.733 14.1475C130.382 13.988 130.104 13.7464 129.899 13.4229C129.699 13.0993 129.599 12.6891 129.599 12.1924C129.599 11.445 129.895 10.8708 130.487 10.4697C131.08 10.0687 131.982 9.84993 133.194 9.81348L134.486 9.75879V9.30078C134.486 8.65365 134.347 8.2002 134.069 7.94043C133.791 7.68066 133.399 7.55078 132.894 7.55078C132.502 7.55078 132.128 7.60775 131.772 7.72168C131.417 7.83561 131.08 7.97005 130.761 8.125L130.412 7.26367C130.749 7.09049 131.137 6.94238 131.574 6.81934C132.012 6.69629 132.472 6.63477 132.955 6.63477ZM134.473 10.5586L133.331 10.6064C132.397 10.6429 131.738 10.7956 131.355 11.0645C130.973 11.3333 130.781 11.7139 130.781 12.2061C130.781 12.6344 130.911 12.9512 131.171 13.1562C131.431 13.3613 131.775 13.4639 132.203 13.4639C132.868 13.4639 133.413 13.2793 133.837 12.9102C134.261 12.541 134.473 11.9873 134.473 11.249V10.5586Z" fill="black"/>
<path d="M139.073 14.25H137.932V3.61328H139.073V14.25Z" fill="black"/>
<path d="M144.357 6.62109C144.995 6.62109 145.542 6.76237 145.998 7.04492C146.454 7.32747 146.802 7.72396 147.044 8.23438C147.285 8.74023 147.406 9.33268 147.406 10.0117V10.7158H142.231C142.245 11.5954 142.464 12.2653 142.888 12.7256C143.312 13.1859 143.909 13.416 144.679 13.416C145.153 13.416 145.572 13.3727 145.937 13.2861C146.301 13.1995 146.679 13.0719 147.071 12.9033V13.9014C146.693 14.07 146.317 14.193 145.943 14.2705C145.574 14.348 145.137 14.3867 144.631 14.3867C143.911 14.3867 143.282 14.2409 142.744 13.9492C142.211 13.653 141.796 13.2201 141.5 12.6504C141.204 12.0807 141.056 11.3835 141.056 10.5586C141.056 9.75195 141.19 9.05469 141.459 8.4668C141.732 7.87435 142.115 7.41862 142.607 7.09961C143.104 6.7806 143.688 6.62109 144.357 6.62109ZM144.344 7.55078C143.738 7.55078 143.255 7.74902 142.895 8.14551C142.535 8.54199 142.32 9.0957 142.252 9.80664H146.217C146.212 9.36003 146.142 8.9681 146.005 8.63086C145.873 8.28906 145.67 8.02474 145.396 7.83789C145.123 7.64648 144.772 7.55078 144.344 7.55078Z" fill="black"/>
</svg>

<svg width="148" height="18" fill="none" xmlns="http://www.w3.org/2000/svg"><rect x="1.09" y="2.5" width="15" height="15" rx="2.5" fill="#fff" stroke="#545454"/><path d="M25.76 14.25h-1.17v-10h5.57v1.03h-4.4v3.67h4.13v1.01h-4.13v4.29Zm8.78-7.63a2.74 2.74 0 0 1 2.69 1.61c.24.51.36 1.1.36 1.78v.7H32.4c.02.89.24 1.56.66 2.02.42.46 1.02.69 1.8.69a5.47 5.47 0 0 0 2.38-.52v1a5.52 5.52 0 0 1-2.44.49 3.9 3.9 0 0 1-1.88-.44c-.54-.3-.95-.73-1.25-1.3a4.5 4.5 0 0 1-.44-2.1 5 5 0 0 1 .4-2.08c.27-.6.66-1.05 1.15-1.37.5-.32 1.08-.48 1.75-.48Zm-.01.93c-.61 0-1.1.2-1.45.6-.36.4-.58.95-.65 1.66h3.97c0-.45-.08-.84-.21-1.18-.13-.34-.34-.6-.61-.8a1.8 1.8 0 0 0-1.05-.28Zm13.12-.93c.83 0 1.45.22 1.87.65.42.43.63 1.12.63 2.07v4.91h-1.12V9.4c0-.61-.14-1.06-.4-1.36-.26-.3-.65-.46-1.16-.46-.73 0-1.25.2-1.58.63-.33.42-.5 1.03-.5 1.85v4.19h-1.12V9.4c0-.4-.06-.75-.18-1.02a1.2 1.2 0 0 0-.52-.6c-.23-.13-.52-.2-.87-.2-.5 0-.9.1-1.2.3-.3.21-.51.52-.65.92-.13.4-.2.9-.2 1.49v3.96h-1.13v-7.5h.91l.17 1.07h.06A2.26 2.26 0 0 1 42 6.76c.28-.1.58-.14.9-.14.57 0 1.05.1 1.43.32.39.21.67.53.84.97h.06a2.3 2.3 0 0 1 1.01-.97c.43-.21.9-.32 1.41-.32Zm7.63.01c.9 0 1.56.2 1.99.6.43.4.65 1.05.65 1.93v5.09h-.83l-.22-1.1h-.05c-.21.27-.43.5-.66.68-.23.19-.49.32-.8.42a3.77 3.77 0 0 1-2.3-.1 1.9 1.9 0 0 1-.84-.73 2.3 2.3 0 0 1-.3-1.23c0-.74.3-1.32.9-1.72.58-.4 1.49-.62 2.7-.66l1.3-.05V9.3c0-.65-.15-1.1-.43-1.36a1.66 1.66 0 0 0-1.17-.39c-.4 0-.77.06-1.12.17-.36.12-.7.25-1.01.4l-.35-.86a5.98 5.98 0 0 1 2.54-.63Zm1.52 3.93-1.14.05c-.94.03-1.6.19-1.98.45-.38.27-.57.65-.57 1.15 0 .42.13.74.39.95.26.2.6.3 1.03.3a2.4 2.4 0 0 0 1.63-.55c.43-.37.64-.92.64-1.66v-.7Zm4.6 3.69h-1.14V3.61h1.14v10.64Zm5.28-7.63a2.74 2.74 0 0 1 2.69 1.61c.24.51.36 1.1.36 1.78v.7h-5.17c.01.89.23 1.56.65 2.02.43.46 1.02.69 1.8.69a5.47 5.47 0 0 0 2.39-.52v1a5.53 5.53 0 0 1-2.44.49 3.9 3.9 0 0 1-1.9-.44 3.1 3.1 0 0 1-1.23-1.3 4.5 4.5 0 0 1-.45-2.1 5 5 0 0 1 .4-2.08c.28-.6.66-1.05 1.15-1.37.5-.32 1.08-.48 1.75-.48Zm-.01.93c-.6 0-1.09.2-1.45.6-.36.4-.57.95-.64 1.66h3.96c0-.45-.07-.84-.21-1.18-.13-.34-.33-.6-.6-.8a1.8 1.8 0 0 0-1.06-.28Z" fill="#000"/><rect x="93.73" y="2" width="16" height="16" rx="3" fill="#1E71F6"/><path d="M105.21 5.34a.86.86 0 0 1 1.16-.2c.38.25.47.74.21 1.1l-6.1 8.42a.86.86 0 0 1-1.39-.01l-2.22-3.16a.76.76 0 0 1 .23-1.1.86.86 0 0 1 1.16.22l1.54 2.2 5.41-7.47Z" fill="#fff"/><path d="m122.13 14.25-3.36-8.85h-.05a15.95 15.95 0 0 1 .08 1.57l.01.96v6.32h-1.08v-10h1.72l3.17 8.32h.05l3.21-8.31h1.7v9.99h-1.14v-6.4a29.26 29.26 0 0 1 .09-2.43h-.06l-3.4 8.83h-.94Zm10.83-7.62c.89 0 1.55.2 1.98.6.44.4.65 1.05.65 1.93v5.09h-.82l-.22-1.1h-.06c-.2.27-.43.5-.65.68-.23.19-.5.32-.8.42a3.77 3.77 0 0 1-2.3-.1 1.9 1.9 0 0 1-.84-.73 2.3 2.3 0 0 1-.3-1.23c0-.74.3-1.32.89-1.72a5.2 5.2 0 0 1 2.7-.66l1.3-.05V9.3c0-.65-.14-1.1-.42-1.36a1.66 1.66 0 0 0-1.18-.39c-.39 0-.76.06-1.12.17-.35.12-.69.25-1 .4l-.36-.86c.34-.17.73-.32 1.16-.44.44-.12.9-.19 1.39-.19Zm1.51 3.93-1.14.05c-.93.03-1.6.19-1.98.45-.38.27-.57.65-.57 1.15 0 .42.13.74.4.95.25.2.6.3 1.02.3a2.4 2.4 0 0 0 1.64-.55c.42-.37.63-.92.63-1.66v-.7Zm4.6 3.69h-1.14V3.61h1.14v10.64Zm5.29-7.63a2.75 2.75 0 0 1 2.69 1.61c.23.51.36 1.1.36 1.78v.7h-5.18c.02.89.23 1.56.66 2.02a2.3 2.3 0 0 0 1.79.69 5.48 5.48 0 0 0 2.4-.52v1a5.52 5.52 0 0 1-2.45.49 3.9 3.9 0 0 1-1.89-.44c-.53-.3-.94-.73-1.24-1.3a4.5 4.5 0 0 1-.44-2.1 5 5 0 0 1 .4-2.08c.27-.6.66-1.05 1.15-1.37.5-.32 1.08-.48 1.75-.48Zm-.02.93c-.6 0-1.09.2-1.44.6-.37.4-.58.95-.65 1.66h3.97c0-.45-.08-.84-.22-1.18-.13-.34-.33-.6-.6-.8a1.8 1.8 0 0 0-1.06-.28Z" fill="#000"/></svg>
